X:1
T:Title
%%score { ( 1 3 ) | ( 2 4 ) }
L:1/8
M:4/4
K:Eb
V:1 treble nm="Grand Piano"
V:3 treble 
V:2 bass 
V:4 bass 
V:1
 z4 z2[Q:1/4=100] B2 | B2 B2 B2 B2 | c4 c2 c2 | F3 F [DF]2 [D_G]2 | [EG]6 [FG]2 | %5
 [Ee]3 [Ge] [Fd]2 [Fc]2 | B2- [EB]2 G2 [FG]2 | E3 E F2 G2 | [DF]6 [DF]2 | G3 A B2 B2 | %10
 e4 [Gc]2 [Gc]2 | [_G=A]3 [GA] [=E=G]2 [_GA]2 | B6 B2 | e2 [EG]2 [EA]2 [Ec]2 | %14
 [EB]4 [B,EG]2 .[Ec]2 | [EGB]2 [EB]2 [GB]3 [FB] |[M:7/4] [G,E]6 z2 z2 z4 |[M:4/4] [A,CE]8 | %18
 [G,B,E]8 |] %19
V:2
 z4 z2 [E,G,E]2 | [E,G,E]2 [E,G,E]2 [F,A,D]2 [G,B,E]2 | [A,E]4 [G,B,=E]2 [F,A,F]2 | %3
 [B,E]3 [B,E] [B,,B,]2 [B,,B,]2 | [E,B,]6 [D,=B,]2 | [C,C]3 [C,G,] [D,B,]2 [D,A,]2 | %6
 A,2 G,2 [E,B,E]2 [D,=B,]2 | [C,C]3 [C,B,] [F,=A,E]2 [F,A,E]2 | [B,,B,]6 [B,,B,]2 | %9
 [E,B,E]3 [F,B,D] [G,B,E]2 [F,A,D]2 | [E,G,E]4 [E,C]2 [E,C]2 | [D,C]3 [D,C] [D,C]2 [D,C]2 | %12
 [G,B,G]6 [F,A,D]2 | [E,G,E]2 [_D,B,]2 [C,A,]2 [A,,A,]2 | [E,G,]4 E,2 z F | %15
 B,,2 [B,,G,]2 [B,,B,]3 [B,,A,] |[M:7/4] E,6 z2 z2 z4 |[M:4/4] A,,8 | E,8 |] %19
V:3
 x8 | x8 | x8 | x8 | x8 | x8 | F2 z2 z4 | x8 | x8 | x8 | x8 | x8 | x8 | x8 | x8 | x8 |[M:7/4] x14 | %17
[M:4/4] x8 | x8 |] %19
V:4
 x8 | x8 | x8 | x8 | x8 | x8 | E,4 z4 | x8 | x8 | x8 | x8 | x8 | x8 | x8 | z4 z2 A,,2 | x8 | %16
[M:7/4] x14 |[M:4/4] x8 | x8 |] %19

